ultrasound/ui/components/svgs/base-badge.svg

<svg width="108" height="20" viewBox="0 0 108 20" fill="none" xmlns="http://www.w3.org/2000/svg">
<rect width="108" height="20" rx="4" fill="#2D2D38"/>
<circle cx="14" cy="10" r="6" fill="white"/>
<g clip-path="url(#clip0_3182_21445)">
<path d="M13.9895 16C17.309 16 20 13.3137 20 10C20 6.68629 17.309 4 13.9895 4C10.8402 4 8.25659 6.41795 8 9.49564H15.9445V10.5043H8C8.25659 13.582 10.8402 16 13.9895 16Z" fill="#0052FF"/>
</g>
<path d="M32.5398 9.63636C32.5398 10.5682 32.3693 11.3693 32.0284 12.0398C31.6875 12.7074 31.2202 13.2216 30.6264 13.5824C30.0355 13.9403 29.3636 14.1193 28.6108 14.1193C27.8551 14.1193 27.1804 13.9403 26.5866 13.5824C25.9957 13.2216 25.5298 12.706 25.1889 12.0355C24.848 11.3651 24.6776 10.5653 24.6776 9.63636C24.6776 8.70455 24.848 7.90483 25.1889 7.23722C25.5298 6.56676 25.9957 6.05256 26.5866 5.6946C27.1804 5.33381 27.8551 5.15341 28.6108 5.15341C29.3636 5.15341 30.0355 5.33381 30.6264 5.6946C31.2202 6.05256 31.6875 6.56676 32.0284 7.23722C32.3693 7.90483 32.5398 8.70455 32.5398 9.63636ZM31.2358 9.63636C31.2358 8.92614 31.1207 8.32812 30.8906 7.84233C30.6634 7.35369 30.3509 6.98438 29.9531 6.73438C29.5582 6.48153 29.1108 6.35511 28.6108 6.35511C28.108 6.35511 27.6591 6.48153 27.2642 6.73438C26.8693 6.98438 26.5568 7.35369 26.3267 7.84233C26.0994 8.32812 25.9858 8.92614 25.9858 9.63636C25.9858 10.3466 26.0994 10.946 26.3267 11.4347C26.5568 11.9205 26.8693 12.2898 27.2642 12.5426C27.6591 12.7926 28.108 12.9176 28.6108 12.9176C29.1108 12.9176 29.5582 12.7926 29.9531 12.5426C30.3509 12.2898 30.6634 11.9205 30.8906 11.4347C31.1207 10.946 31.2358 10.3466 31.2358 9.63636ZM35.3533 10.1136V14H34.0792V7.45455H35.3022V8.51989H35.3832C35.5337 8.1733 35.7695 7.89489 36.0906 7.68466C36.4144 7.47443 36.8221 7.36932 37.3136 7.36932C37.7596 7.36932 38.1502 7.46307 38.4854 7.65057C38.8207 7.83523 39.0806 8.1108 39.2653 8.47727C39.4499 8.84375 39.5423 9.29687 39.5423 9.83665V14H38.2681V9.99006C38.2681 9.51562 38.1445 9.14489 37.8974 8.87784C37.6502 8.60795 37.3107 8.47301 36.8789 8.47301C36.5835 8.47301 36.3207 8.53693 36.0906 8.66477C35.8633 8.79261 35.6829 8.98011 35.5494 9.22727C35.4187 9.47159 35.3533 9.76705 35.3533 10.1136ZM42.5252 5.27273V14H41.2511V5.27273H42.5252ZM45.0447 16.4545C44.8544 16.4545 44.6811 16.4389 44.5249 16.4077C44.3686 16.3793 44.2521 16.348 44.1754 16.3139L44.4822 15.2699C44.7152 15.3324 44.9226 15.3594 45.1044 15.3509C45.2862 15.3423 45.4467 15.2741 45.5859 15.1463C45.728 15.0185 45.853 14.8097 45.9609 14.5199L46.1186 14.0852L43.7237 7.45455H45.0874L46.745 12.5341H46.8132L48.4709 7.45455H49.8388L47.1413 14.8736C47.0163 15.2145 46.8572 15.5028 46.6641 15.7386C46.4709 15.9773 46.2408 16.1563 45.9737 16.2756C45.7067 16.3949 45.397 16.4545 45.0447 16.4545ZM56.9691 14.1321C56.3555 14.1321 55.82 13.9915 55.3626 13.7102C54.9052 13.429 54.5501 13.0355 54.2972 12.5298C54.0444 12.0241 53.918 11.4332 53.918 10.7571C53.918 10.0781 54.0444 9.48437 54.2972 8.97585C54.5501 8.46733 54.9052 8.07244 55.3626 7.79119C55.82 7.50994 56.3555 7.36932 56.9691 7.36932C57.5827 7.36932 58.1183 7.50994 58.5756 7.79119C59.033 8.07244 59.3881 8.46733 59.641 8.97585C59.8938 9.48437 60.0202 10.0781 60.0202 10.7571C60.0202 11.4332 59.8938 12.0241 59.641 12.5298C59.3881 13.0355 59.033 13.429 58.5756 13.7102C58.1183 13.9915 57.5827 14.1321 56.9691 14.1321ZM56.9734 13.0625C57.3711 13.0625 57.7006 12.9574 57.962 12.7472C58.2234 12.5369 58.4165 12.2571 58.5415 11.9077C58.6694 11.5582 58.7333 11.1733 58.7333 10.7528C58.7333 10.3352 58.6694 9.9517 58.5415 9.60227C58.4165 9.25 58.2234 8.96733 57.962 8.75426C57.7006 8.54119 57.3711 8.43466 56.9734 8.43466C56.5728 8.43466 56.2404 8.54119 55.9762 8.75426C55.7148 8.96733 55.5202 9.25 55.3924 9.60227C55.2674 9.9517 55.2049 10.3352 55.2049 10.7528C55.2049 11.1733 55.2674 11.5582 55.3924 11.9077C55.5202 12.2571 55.7148 12.5369 55.9762 12.7472C56.2404 12.9574 56.5728 13.0625 56.9734 13.0625ZM62.7166 10.1136V14H61.4425V7.45455H62.6655V8.51989H62.7464C62.897 8.1733 63.1328 7.89489 63.4538 7.68466C63.7777 7.47443 64.1854 7.36932 64.6768 7.36932C65.1229 7.36932 65.5135 7.46307 65.8487 7.65057C66.1839 7.83523 66.4439 8.1108 66.6286 8.47727C66.8132 8.84375 66.9055 9.29687 66.9055 9.83665V14H65.6314V9.99006C65.6314 9.51562 65.5078 9.14489 65.2607 8.87784C65.0135 8.60795 64.674 8.47301 64.2422 8.47301C63.9467 8.47301 63.6839 8.53693 63.4538 8.66477C63.2266 8.79261 63.0462 8.98011 62.9126 9.22727C62.782 9.47159 62.7166 9.76705 62.7166 10.1136ZM71.8924 14V5.27273H75.0884C75.7077 5.27273 76.2205 5.375 76.6268 5.57955C77.033 5.78125 77.337 6.0554 77.5387 6.40199C77.7404 6.74574 77.8413 7.13352 77.8413 7.56534C77.8413 7.92898 77.7745 8.2358 77.641 8.4858C77.5075 8.73295 77.3285 8.93182 77.104 9.08239C76.8825 9.23011 76.6381 9.33807 76.3711 9.40625V9.49148C76.6609 9.50568 76.9435 9.59943 77.2191 9.77273C77.4975 9.94318 77.7276 10.1861 77.9094 10.5014C78.0913 10.8168 78.1822 11.2003 78.1822 11.652C78.1822 12.098 78.0771 12.4986 77.8668 12.8537C77.6594 13.206 77.3384 13.4858 76.9038 13.6932C76.4691 13.8977 75.9137 14 75.2376 14H71.8924ZM73.2092 12.8707H75.1097C75.7404 12.8707 76.1921 12.7486 76.4648 12.5043C76.7376 12.2599 76.8739 11.9545 76.8739 11.5881C76.8739 11.3125 76.8043 11.0597 76.6651 10.8295C76.5259 10.5994 76.3271 10.4162 76.0685 10.2798C75.8129 10.1435 75.5089 10.0753 75.1566 10.0753H73.2092V12.8707ZM73.2092 9.0483H74.9734C75.2688 9.0483 75.5344 8.99148 75.7702 8.87784C76.0089 8.7642 76.1978 8.60511 76.337 8.40057C76.479 8.19318 76.5501 7.94886 76.5501 7.66761C76.5501 7.30682 76.4237 7.00426 76.1708 6.75994C75.918 6.51562 75.5302 6.39347 75.0075 6.39347H73.2092V9.0483ZM81.5465 14.1449C81.1317 14.1449 80.7567 14.0682 80.4215 13.9148C80.0863 13.7585 79.8207 13.5327 79.6246 13.2372C79.4315 12.9418 79.3349 12.5795 79.3349 12.1506C79.3349 11.7812 79.4059 11.4773 79.5479 11.2386C79.69 11 79.8817 10.8111 80.1232 10.6719C80.3647 10.5327 80.6346 10.4276 80.9329 10.3565C81.2312 10.2855 81.5352 10.2315 81.8448 10.1946C82.2369 10.1491 82.555 10.1122 82.7994 10.0838C83.0437 10.0526 83.2212 10.0028 83.332 9.93466C83.4428 9.86648 83.4982 9.75568 83.4982 9.60227V9.57244C83.4982 9.20028 83.3931 8.91193 83.1829 8.70739C82.9755 8.50284 82.6658 8.40057 82.2539 8.40057C81.8249 8.40057 81.4869 8.49574 81.2397 8.68608C80.9954 8.87358 80.8263 9.08239 80.7326 9.3125L79.5352 9.03977C79.6772 8.64205 79.8846 8.32102 80.1573 8.0767C80.4329 7.82955 80.7496 7.65057 81.1076 7.53977C81.4656 7.42614 81.842 7.36932 82.2369 7.36932C82.4982 7.36932 82.7752 7.40057 83.0678 7.46307C83.3633 7.52273 83.6388 7.63352 83.8945 7.79545C84.1531 7.95739 84.3647 8.18892 84.5295 8.49006C84.6942 8.78835 84.7766 9.17614 84.7766 9.65341V14H83.5323V13.1051H83.4812C83.3988 13.2699 83.2752 13.4318 83.1104 13.5909C82.9457 13.75 82.734 13.8821 82.4755 13.9872C82.217 14.0923 81.9073 14.1449 81.5465 14.1449ZM81.8235 13.1222C82.1758 13.1222 82.4769 13.0526 82.7269 12.9134C82.9798 12.7741 83.1715 12.5923 83.3022 12.3679C83.4357 12.1406 83.5025 11.8977 83.5025 11.6392V10.7955C83.457 10.8409 83.369 10.8835 83.2383 10.9233C83.1104 10.9602 82.9641 10.9929 82.7994 11.0213C82.6346 11.0469 82.4741 11.071 82.3178 11.0938C82.1616 11.1136 82.0309 11.1307 81.9258 11.1449C81.6786 11.1761 81.4528 11.2287 81.2482 11.3026C81.0465 11.3764 80.8846 11.483 80.7624 11.6222C80.6431 11.7585 80.5835 11.9403 80.5835 12.1676C80.5835 12.483 80.6999 12.7216 80.9329 12.8835C81.1658 13.0426 81.4627 13.1222 81.8235 13.1222ZM91.3786 9.05256L90.2237 9.2571C90.1754 9.10937 90.0987 8.96875 89.9936 8.83523C89.8913 8.7017 89.7521 8.59233 89.576 8.5071C89.3999 8.42187 89.1797 8.37926 88.9155 8.37926C88.5547 8.37926 88.2536 8.46023 88.0121 8.62216C87.7706 8.78125 87.6499 8.98722 87.6499 9.24006C87.6499 9.45881 87.7308 9.63494 87.8928 9.76847C88.0547 9.90199 88.3161 10.0114 88.6768 10.0966L89.7166 10.3352C90.3189 10.4744 90.7678 10.6889 91.0632 10.9787C91.3587 11.2685 91.5064 11.6449 91.5064 12.108C91.5064 12.5 91.3928 12.8494 91.1655 13.1562C90.9411 13.4602 90.6271 13.6989 90.2237 13.8722C89.8232 14.0455 89.3587 14.1321 88.8303 14.1321C88.0973 14.1321 87.4993 13.9759 87.0362 13.6634C86.5732 13.348 86.2891 12.9006 86.1839 12.321L87.4155 12.1335C87.4922 12.4545 87.6499 12.6974 87.8885 12.8622C88.1271 13.0241 88.4382 13.1051 88.8217 13.1051C89.2393 13.1051 89.5732 13.0185 89.8232 12.8452C90.0732 12.669 90.1982 12.4545 90.1982 12.2017C90.1982 11.9972 90.1214 11.8253 89.968 11.6861C89.8175 11.5469 89.5859 11.4418 89.2734 11.3707L88.1655 11.1278C87.5547 10.9886 87.103 10.767 86.8104 10.4631C86.5206 10.1591 86.3757 9.77415 86.3757 9.30824C86.3757 8.92187 86.4837 8.58381 86.6996 8.29403C86.9155 8.00426 87.2138 7.77841 87.5945 7.61648C87.9751 7.4517 88.4112 7.36932 88.9027 7.36932C89.6101 7.36932 90.1669 7.52273 90.5732 7.82955C90.9794 8.13352 91.2479 8.54119 91.3786 9.05256ZM95.7283 14.1321C95.0835 14.1321 94.5281 13.9943 94.0621 13.7188C93.5991 13.4403 93.2411 13.0497 92.9883 12.5469C92.7383 12.0412 92.6133 11.4489 92.6133 10.7699C92.6133 10.0994 92.7383 9.50852 92.9883 8.99716C93.2411 8.4858 93.5934 8.08665 94.0451 7.79972C94.4996 7.51278 95.0309 7.36932 95.6388 7.36932C96.0082 7.36932 96.3661 7.4304 96.7127 7.55256C97.0593 7.67472 97.3704 7.86648 97.646 8.12784C97.9215 8.3892 98.1388 8.72869 98.2979 9.14631C98.457 9.56108 98.5366 10.0653 98.5366 10.6591V11.1108H93.3335V10.1562H97.288C97.288 9.82102 97.2198 9.52415 97.0835 9.26562C96.9471 9.00426 96.7553 8.7983 96.5082 8.64773C96.2638 8.49716 95.9769 8.42188 95.6474 8.42188C95.2894 8.42188 94.9769 8.50994 94.7099 8.68608C94.4457 8.85937 94.2411 9.08665 94.0962 9.3679C93.9542 9.64631 93.8832 9.94886 93.8832 10.2756V11.0213C93.8832 11.4588 93.9599 11.831 94.1133 12.1378C94.2695 12.4446 94.4869 12.679 94.7653 12.8409C95.0437 13 95.369 13.0795 95.7411 13.0795C95.9826 13.0795 96.2028 13.0455 96.4016 12.9773C96.6005 12.9062 96.7724 12.8011 96.9173 12.6619C97.0621 12.5227 97.1729 12.3509 97.2496 12.1463L98.4556 12.3636C98.359 12.7187 98.1857 13.0298 97.9357 13.2969C97.6886 13.5611 97.3775 13.767 97.0025 13.9148C96.6303 14.0597 96.2056 14.1321 95.7283 14.1321Z" fill="white"/>
<defs>
<clipPath id="clip0_3182_21445">
<rect width="12" height="12" fill="white" transform="translate(8 4)"/>
</clipPath>
</defs>
</svg>

<svg width="108" height="20" fill="none" viewBox="0 0 108 20" xmlns="http://www.w3.org/2000/svg">
  <rect width="108" height="20" fill="#2D2D38" rx="4"/>
  <circle cx="14" cy="10" r="6" fill="#fff"/>
  <g clip-path="url(#a)">
    <path fill="#0052FF" d="M13.99 16c3.319 0 6.01-2.686 6.01-6s-2.691-6-6.01-6A6.007 6.007 0 0 0 8 9.496h7.945v1.008H8A6.007 6.007 0 0 0 13.99 16"/>
  </g>
  <path fill="#fff" d="M32.54 9.636q0 1.398-.512 2.404-.51 1.001-1.402 1.542-.885.537-2.015.537-1.133 0-2.024-.537-.887-.54-1.398-1.546-.511-1.005-.511-2.4 0-1.397.51-2.399.513-1.005 1.399-1.542.89-.542 2.024-.542 1.129 0 2.015.542.89.537 1.402 1.542.512 1.002.512 2.4m-1.304 0q0-1.065-.345-1.794-.342-.732-.938-1.108a2.44 2.44 0 0 0-1.342-.379q-.755 0-1.347.38-.592.375-.937 1.107-.341.729-.341 1.794t.34 1.799q.345.729.938 1.108.593.375 1.347.375.75 0 1.342-.375.596-.38.938-1.108.345-.733.345-1.799m4.117.478V14H34.08V7.455h1.223V8.52h.081a1.87 1.87 0 0 1 .708-.835q.485-.315 1.223-.316.669 0 1.171.282.504.277.78.826.277.55.277 1.36V14h-1.274V9.99q0-.711-.37-1.112-.371-.405-1.02-.405-.442 0-.787.192a1.4 1.4 0 0 0-.542.562q-.195.367-.196.887m7.172-4.841V14h-1.274V5.273zm2.52 11.182q-.285 0-.52-.047a1.6 1.6 0 0 1-.35-.094l.307-1.044q.35.094.622.08a.75.75 0 0 0 .482-.204q.213-.191.375-.626l.158-.435-2.395-6.63h1.363l1.658 5.08h.068l1.658-5.08h1.368l-2.698 7.419q-.187.51-.477.865a1.85 1.85 0 0 1-.69.537q-.4.178-.93.178m11.924-2.323q-.92 0-1.606-.422a2.85 2.85 0 0 1-1.066-1.18q-.38-.759-.379-1.773 0-1.019.38-1.781a2.84 2.84 0 0 1 1.065-1.185q.685-.422 1.606-.422t1.607.422a2.84 2.84 0 0 1 1.065 1.185q.38.762.38 1.781 0 1.014-.38 1.773t-1.065 1.18-1.607.422m.004-1.07q.597 0 .989-.315.391-.315.58-.84.19-.524.191-1.154 0-.627-.191-1.15a1.87 1.87 0 0 0-.58-.849q-.391-.32-.989-.32-.6 0-.997.32a1.9 1.9 0 0 0-.584.848q-.187.525-.187 1.15 0 .631.187 1.156.192.524.584.84.397.315.997.315m5.744-2.948V14h-1.274V7.455h1.223V8.52h.08q.227-.52.708-.835.485-.315 1.223-.316.668 0 1.172.282.502.277.78.826.276.55.276 1.36V14h-1.274V9.99q0-.711-.37-1.112-.371-.405-1.019-.405-.443 0-.788.192a1.4 1.4 0 0 0-.541.562q-.196.367-.196.887M71.892 14V5.273h3.196q.93 0 1.539.307.609.301.912.822.302.516.302 1.163 0 .545-.2.92a1.65 1.65 0 0 1-.537.597 2.4 2.4 0 0 1-.733.324v.085q.435.022.848.282.418.255.69.728.273.474.273 1.151 0 .67-.315 1.202-.312.528-.963.84-.652.306-1.666.306zm1.317-1.13h1.9q.947 0 1.356-.366.41-.367.409-.916 0-.413-.209-.758a1.5 1.5 0 0 0-.597-.55 1.9 1.9 0 0 0-.911-.205h-1.948zm0-3.822h1.764q.444 0 .797-.17.359-.171.567-.477.213-.312.213-.733 0-.542-.38-.908-.378-.366-1.163-.367H73.21zm8.337 5.097q-.622 0-1.125-.23a1.9 1.9 0 0 1-.796-.678q-.29-.443-.29-1.086 0-.555.213-.912.213-.359.575-.567.363-.209.81-.316a8 8 0 0 1 .912-.161l.954-.111q.367-.046.533-.15.165-.101.166-.332v-.03q0-.558-.315-.865-.311-.306-.93-.306-.642 0-1.013.285-.368.281-.507.627l-1.198-.273q.213-.597.622-.963.414-.37.95-.537a3.7 3.7 0 0 1 1.13-.17q.392 0 .83.093.444.09.828.332.387.243.635.695.246.447.247 1.163V14h-1.245v-.895h-.05a1.8 1.8 0 0 1-.372.486q-.246.239-.635.396a2.5 2.5 0 0 1-.928.158m.277-1.023q.53 0 .904-.209.379-.208.575-.545.2-.34.2-.729v-.843a.7.7 0 0 1-.264.127q-.192.056-.439.098-.246.039-.481.073l-.392.05a3 3 0 0 0-.678.159q-.302.11-.486.32-.178.203-.178.545 0 .473.349.716.35.238.89.238m9.556-4.07-1.155.205a1.4 1.4 0 0 0-.23-.422 1.14 1.14 0 0 0-.418-.328 1.5 1.5 0 0 0-.66-.128q-.541 0-.904.243-.362.24-.362.618 0 .328.243.528t.784.329l1.04.238q.903.21 1.346.644t.443 1.129q0 .588-.34 1.048-.337.456-.942.716-.6.26-1.394.26-1.099 0-1.794-.469-.694-.472-.852-1.342l1.231-.187q.116.48.473.728.359.243.934.243.626 0 1.001-.26.375-.264.375-.643a.67.67 0 0 0-.23-.516q-.225-.21-.695-.315l-1.108-.243q-.915-.21-1.355-.665-.434-.456-.434-1.155 0-.579.324-1.014a2.1 2.1 0 0 1 .894-.678q.571-.246 1.309-.247 1.06 0 1.67.46.61.457.806 1.224m4.35 5.08q-.967 0-1.667-.413a2.8 2.8 0 0 1-1.074-1.172q-.375-.759-.375-1.777 0-1.005.375-1.773.38-.766 1.057-1.197.682-.43 1.594-.43.554 0 1.074.183.519.183.933.575.413.391.652 1.018.239.623.239 1.513v.452h-5.204v-.955h3.955q0-.503-.204-.89a1.55 1.55 0 0 0-.576-.618 1.6 1.6 0 0 0-.86-.226q-.538 0-.938.264-.396.26-.614.682a2 2 0 0 0-.213.908v.745q0 .657.23 1.117.235.46.652.703.418.239.976.239.363 0 .66-.103.3-.106.516-.315a1.4 1.4 0 0 0 .333-.516l1.206.218q-.145.533-.52.933a2.5 2.5 0 0 1-.934.618 3.5 3.5 0 0 1-1.274.217"/>
  <defs>
    <clipPath id="a">
      <path fill="#fff" d="M8 4h12v12H8z"/>
    </clipPath>
  </defs>
</svg>
